!!!!SEGMENT: pl-wumfc--n2100--018_dobrzynski-ignacy-feliks--monbar-czyli-flibustierowie-partytura-fortepianowa-akt-iii-16-arya-no-2.krn
!!!cenid: 18xx:4201
!!!COM: Dobrzyński, Ignacy Feliks
!!!COM-rismID: pe30020642
!!!CDT: 1807/02/15-1867/10/09
!!!CNT: Polish
!!!GTL: Monbar czyli Flibustierowie - partytura fortepianowa
!!!OTL: Akt III - 16. Arya No. 2
!!!OMV: 018
!!!PDT: 1863
!!!AGN:
!!!SMS-siglum: PL-Wumfc
!!!SMS-shelfmark: N2100
!!!SMS-variant:
!!!SMS-altvar:
!!!SMS-shelfwork: 001-018 G
!!!NIFC-rismSourceID: 1001123412
!!!NIFC-rismChildID: 1001123412
!!!NIFC-islandoraID: pl-wumfc:1659
!!!URL-pdf-islandora: https://repozytorium.nifc.pl/islandora/object/pl-wumfc%3A1659/datastream/PDF/view
!!!URL-scan: https://polish.musicsources.pl/pl/lokalizacje/galeria/druki-muzyczne/11863/144 @EN{Scan on Polish Music Sources Website} @PL{Skany w portalu Dziedzictwo Muzyki Polskiej w otwartym dostępie}
!!!IIIF:
!!!ONB-nifc: Skany 0144-0145
!!!AIN: 2 piano 1 vox
!!!key: G
**kern	**kern	**dynam	**kern	**text	**dynam
*part3	*part2	*part2	*part1	*part1	*part1
*staff3	*staff2	*	*staff1	*staff1	*
*I"PIANO.	*I"PIANO.	*	*I"D. MARYA.	*	*
*I'[pf]	*I'[pf]	*	*I'[D. M.]	*	*
*ICklav	*ICklav	*	*ICvox	*	*
*Ipiano	*Ipiano	*	*Ivox	*	*
*clefF4	*clefG2	*	*clefG2	*	*
*k[f#]	*k[f#]	*	*k[f#]	*	*
*G:	*G:	*	*G:	*	*
*M4/4	*M4/4	*	*M4/4	*	*
*met(c)	*met(c)	*	*met(c)	*	*
!!LO:TX:a:t= +) Napisana dla Schröder Devrient i przez nią\n wykonana w czasie przedstawienia wyjątków w tejze\n Opery (w kostiumach) w Dreznie w teatrze królewskim\n d. 15. Stycznia 1846 r. pod Dyrekcyą Autora.
!	!	!	!LO:TX:a:B:t=Recit&colon;	!	!
!	!	!	!LO:TX:a:B:t=+	!	!
4r	4r	.	8a/	W tém	.
.	.	.	8a/	za-	.
=1	=1	=1	=1	=1	=1
1r	1r	.	4.dd\	-bły-	.
.	.	.	8a/	-sła	.
.	.	.	4.ff#\	zo-	.
.	.	.	8dd\	-rza	.
=2	=2	=2	=2	=2	=2
!LO:N:vis=1	!LO:TX:b:i:t=Cadenza	!	!	!	!
!	!LO:N:vis=1	!	!	!	!
1..r;	1..r;	.	2aa;\	słoń-	.
!	!	!	!LO:TUP:a:problem:klamra łukowa	!	!
.	.	.	24gg#X/LL	.	.
.	.	.	24aa/	.	.
.	.	.	24bb/	.	.
.	.	.	24aa/	.	.
.	.	.	24ggn/	.	.
.	.	.	24ff#/JJ	.	.
!	!	!	!LO:TUP:a:problem:klamra łukowa	!	!
.	.	.	24ee#X/LL	.	.
.	.	.	24ff#/	.	.
.	.	.	24gg/	.	.
.	.	.	24ff#/	.	.
.	.	.	24een/	.	.
.	.	.	24dd/JJ	.	.
!	!	!	!LO:TUP:a:problem:klamra łukowa	!	!
.	.	.	24cc#X/LL	.	.
.	.	.	24dd/	.	.
.	.	.	24ee/	.	.
.	.	.	24dd/	.	.
.	.	.	24cc#/	.	.
.	.	.	24b/JJ	.	.
.	.	.	(16a/LL	.	.
!	!	!	!LO:TX:a:i:t=rallen	!	!
.	.	.	16g#X/	.	.
.	.	.	16b/	.	.
.	.	.	16a/JJ)	.	.
.	.	.	(16f#/LL	.	.
.	.	.	16gn/	.	.
.	.	.	16e/	.	.
.	.	.	16a;/JJ)	.	.
!!LO:LB:g=original	!	!	!	!	!
=3||	=3||	=3||	=3||	=3||	=3||
!	!	!	!LO:TX:a:B:t=Vivace.	!	!
8DD/L	16f#/LL	.	4d/	-ca	.
.	16dd/	.	.	.	.
8D/	16f#/	.	.	.	.
.	16dd/JJ	.	.	.	.
8DD/	16g\LL	.	4r	.	.
.	16ee\	.	.	.	.
8D/J	16g\	.	.	.	.
.	16ee\JJ	.	.	.	.
*tremolo	*tremolo	*	*	*	*
!	!LO:TX:b:i:t=simile	!	!	!	!
8DD/L	16g#X\LL 16ee#X	.	2r	.	.
.	16g#\ 16ee#	.	.	.	.
8D/	16g#\ 16ee#	.	.	.	.
.	16g#\JJ 16ee#	.	.	.	.
8DD/	16a\LL 16ff#	.	.	.	.
.	16a\ 16ff#	.	.	.	.
8D/J	16a\ 16ff#	.	.	.	.
.	16a\JJ 16ff#	.	.	.	.
=4	=4	=4	=4	=4	=4
8DD/L	16b-X\LL 16gg	.	1r	.	.
.	16b-\ 16gg	.	.	.	.
8D/	16b-\ 16gg	.	.	.	.
.	16b-\JJ 16gg	.	.	.	.
!	!LO:TX:b:t=cres-:dur=11q:ext=cd:problem:text with extention lines 	!	!	!	!
8DD/	16bn\LL 16gg#X	<	.	.	.
.	16b\ 16gg#	.	.	.	.
8D/J	16b\ 16gg#	.	.	.	.
.	16b\JJ 16gg#	.	.	.	.
8DD/L	16cc\LL 16aa	.	.	.	.
.	16cc\ 16aa	.	.	.	.
8D/	16cc\ 16aa	.	.	.	.
.	16cc\JJ 16aa	.	.	.	.
8DD/	16cc#X\LL 16aa#X	.	.	.	.
.	16cc#\ 16aa#	.	.	.	.
8D/J	16cc#\ 16aa#	.	.	.	.
.	16cc#\JJ 16aa#	.	.	.	.
=5	=5	=5	=5	=5	=5
8DD/L 8D	16dd\LL 16bb	.	1r	.	.
.	16dd\ 16bb	.	.	.	.
8DD/ 8D	16dd\ 16bb	.	.	.	.
.	16dd\JJ 16bb	.	.	.	.
8DD/ 8D	16ee-X\LL 16ccc	.	.	.	.
.	16ee-\ 16ccc	.	.	.	.
8DD/J 8D	16ee-\ 16ccc	.	.	.	.
.	16ee-\JJ 16ccc	.	.	.	.
8DD/L 8D	16een\LL 16ccc#X	.	.	.	.
.	16ee\ 16ccc#	.	.	.	.
8DD/ 8D	16ee\ 16ccc#	.	.	.	.
.	16ee\JJ 16ccc#	.	.	.	.
8DD/ 8D	16ffn\LL 16ddd	.	.	.	.
.	16ff\ 16ddd	.	.	.	.
8DD/J 8D	16ff\ 16ddd	.	.	.	.
.	16ff\JJ 16ddd	.	.	.	.
=6	=6	=6	=6	=6	=6
8DD/L 8D	16ff#X\LL 16ddd#X	.	2r	.	.
.	16ff#\ 16ddd#	.	.	.	.
8DD/ 8D	16ff#\ 16ddd#	.	.	.	.
.	16ff#\JJ 16ddd#	.	.	.	.
*	*8va	*	*	*	*
8DD/ 8D	16gg\LL 16eee	.	.	.	.
.	16gg\ 16eee	.	.	.	.
8DD/J 8D	16gg\ 16eee	.	.	.	.
.	16gg\JJ 16eee	.	.	.	.
8DD/L 8D	16gg#X\LL 16eee#X	.	4r	.	.
.	16gg#\ 16eee#	.	.	.	.
8DD/ 8D	16gg#\ 16eee#	.	.	.	.
.	16gg#\JJ 16eee#	.	.	.	.
8DD/ 8D	16aa\LL 16fff#	.	4dd\	Już	.
.	16aa\ 16fff#	.	.	.	.
8DD/J 8D	16aa\ 16fff#	.	.	.	.
.	16aa\JJ 16fff#	[[	.	.	.
=7	=7	=7	=7	=7	=7
4GG/ 4G	8gg\ 8ggg	f >	4.gg\	za-	.
*	*X8va	*	*	*	*
.	4B/ 4d 4g	.	.	.	.
4BB/	.	.	.	.	.
.	4B/ 4d 4g	.	8g/	-błysł	.
4D\	.	.	4f#/	pro-	.
.	4B/ 4d 4g	.	.	.	.
4G\	.	.	4g/	-mień	.
.	(<8B/ (<8d (>8g	]	.	.	.
!!LO:LB:g=original	!	!	!	!	!
=8	=8	=8	=8	=8	=8
4CC/	8c/) 8e) 8a)	p	4b\	słoń-	.
.	4c/ 4e 4a	.	.	.	.
4EE/	.	.	4a/	-ca	.
.	4c/ 4e 4a	.	.	.	.
4AA/	.	.	4.ff#\	na-	.
.	4c/ 4e 4a	.	.	.	.
4C/	.	.	.	.	.
.	[<8c/ (>8e [>8a	.	8ee\	-stał	.
=9	=9	=9	=9	=9	=9
4DD/	8c/] 8f#) 8a]	.	(8dd\L	wio-	.
.	4c/ 4f# 4a	.	8cc#X\J)	.	.
4FF#/	.	.	(8ccn\L	-sny	.
.	4c/ 4f# 4a	.	8b\J	.	.
4AA/	.	.	8dd\L	szczęś-	.
.	4c/ 4f# 4a	.	8cc\J	.	.
4DD/	.	.	8e/L	-cia	.
.	(<8c/ (>8f# (>8a	.	8f#/J)	.	.
=10	=10	=10	=10	=10	=10
4GG/	8B/) 8d) 8g)	<	4g/	ra-	.
.	4B/ 4d 4g	.	.	.	.
4BB/	.	.	8d/	-nek	.
.	4B/ 4d 4g	.	8r	.	.
4D\	.	.	4.dd\	je-	.
.	4B/ 4d 4g	.	.	.	.
4G\	.	.	.	.	.
.	[8B/ [>8d [8g	[[	8dd\	-stem	.
=11	=11	=11	=11	=11	=11
4GG/	8B/] 8d] 8g]	f >	4.gg\	bli-	.
.	4B/ 4d 4g	.	.	.	.
4BB/	.	.	.	.	.
.	4B/ 4d 4g	.	8g/	-zką	.
4D\	.	.	4f#/	cier-	.
.	4B/ 4d 4g	.	.	.	.
4G\	.	.	4g/	-pień	.
.	(<8B/ (>8d (>8g	]	.	.	.
!!LO:LB:g=original	!	!	!	!	!
=12	=12	=12	=12	=12	=12
4CC/	8c/) 8e) 8a)	p	4b\	koń-	.
.	4c/ 4e 4a	.	.	.	.
4EE/	.	.	4a/	-ca	.
.	4c/ 4e 4a	.	.	.	.
4AA/	.	.	4.aa\	bo	.
.	4c/ 4e 4a	.	.	.	.
4C/	.	.	.	.	.
.	([>8c/ 8e [8a	.	8gg\	już	.
=13	=13	=13	=13	=13	=13
4DD/	8c/]) 8f# 8a]	.	(8ff#\L	przy-	.
.	4c/ 4f# 4a	.	8ee\J)	.	.
4FF#/	.	.	(8dd\L	-był	.
.	4c/ 4f# 4a	.	8cc#X\J)	.	.
4AA/	.	.	(8ee\L	mój	.
.	4c/ 4f# 4a	.	8dd\J	.	.
4DD/	.	.	8ccn\L	ko-	.
.	(<8c/ (>8f# (>8a	.	8b\J)	.	.
=14	=14	=14	=14	=14	=14
4GG/	8B/) 8d) 8g)	.	4a/	-cha-	.
.	4B/ 4d 4g	.	.	.	.
4BB/	.	.	4g/	-nek	.
.	4B/ 4d 4g	.	.	.	.
4D\	.	.	4r	.	.
.	4B/ 4d 4g	.	.	.	.
4G\	.	.	4b\	Już	.
.	8B/ 8d 8g	.	.	.	.
=15	=15	=15	=15	=15	=15
4F#\	8r	.	4.a/	bły-	.
.	4A/ 4d 4a	p	.	.	.
4F#\	.	.	.	.	.
.	8A/ 8d 8a	.	8a/	-sła	.
4E\	8r	.	(8b\L	zo-	.
.	4A/ 4c#X 4g	.	8cc#X\J	.	.
4AA/	.	.	8dd\L	-rza	.
.	8A/ 8c# 8g	.	8ee\J)	.	.
=16	=16	=16	=16	=16	=16
4DD/	8A/ 8d 8f#	.	4ff#\	słoń-	.
.	4A/ 4d 4f#	.	.	.	.
4FF#/	.	.	8dd\	-ca	.
.	4A/ 4d 4f#	.	8r	.	.
4AA/	.	.	4b\	na-	.
.	4A/ 4d 4f#	.	.	.	.
4D\	.	.	4a/	-stał	.
.	8A/ 8d 8f#	.	.	.	.
!!LO:LB:g=original	!	!	!	!	!
=17	=17	=17	=17	=17	=17
4F#\	8r	.	4.a/	wio-	.
.	4A/ 4d 4a	.	.	.	.
4F#\	.	.	.	.	.
.	8A/ 8d 8a	.	8a/	-sny	.
4E\	8r	.	(8b\L	szczęś-	.
.	4A/ 4c#X 4g	.	8cc#X\J	.	.
4AA/	.	.	8dd\L	-cia	.
.	[<8A/ (>8c# (>8g	.	8ee\J)	.	.
=18	=18	=18	=18	=18	=18
4D\	8A/] 8d) 8f#)	.	4ff#\	ra-	.
.	4A/ 4d 4f#	<	.	.	.
4F#\	.	.	8dd\	-nek	.
.	4A/ 4d 4f#	.	8r	.	.
!	!	!	!	!	!LO:HP:a
4D\	.	.	4.dd\	je-	<
.	8A/ 8d 8f#	.	.	.	.
*	*Xtremolo	*	*	*	*
4BB/	8B/L 8d 8f#	.	.	.	.
.	8B/J 8d 8f#	[	8ee\	-stem	[[
=19	=19	=19	=19	=19	=19
!	!	!	!	!	!LO:DY:a
4FF#/	8A#X/ 8c#X 8f#	f >	4.ff#\	bli-	f
.	4A#/ 4c# 4f#	.	.	.	.
4FF#/	.	.	.	.	.
.	8A#/ 8c# 8f#	.	8cc#X\	-zką	.
4BB/	8B/ 8d 8f#	.	4dd\	cier-	.
.	4B/ 4d 4f#	.	.	.	.
4D\	.	.	4b\	-pień	.
.	8B/ 8d 8f#	]]	.	.	.
=20	=20	=20	=20	=20	=20
*	*^	*	*	*	*
4F#\	8f#/	1A#X 1c#X	p <	4cc#X\	koń-	.
.	4f#/	.	.	.	.	.
4F#\	.	.	.	8f#/	-ca	.
.	4f#/	.	.	8r	.	.
4C#X/	.	.	.	4.ff#\	Bo	.
.	4f#/	.	.	.	.	.
4AA#X/	.	.	.	.	.	.
.	8f#/	.	[[	8ff#\	już	.
=21	=21	=21	=21	=21	=21	=21
4FF#/	8f#/	2A#X\ 2c#X	f	4.ff#\	przy-	.
.	4f#/	.	.	.	.	.
4FF#/	.	.	.	.	.	.
.	8f#/	.	.	8cc#X\	-był	.
4BB/	8f#/	2B\ 2d	.	4dd\	mój-	.
.	4f#/	.	.	.	.	.
4D\	.	.	.	4b\	-ko-	.
.	8f#/	.	.	.	.	.
*	*v	*v	*	*	*	*
!!LO:PB:g=original	!	!	!	!	!
=22	=22	=22	=22	=22	=22
2FF#;/ 2F#	2A#X;/ 2c#X 2f#	.	2ff#;\	-cha-	.
*	*	*	*rscale:4	*	*
!	!	!	!LO:TUP:a:problem:klamra łukowa	!	!
2r;	2r;	.	32%1b#X/L	.	.
.	.	.	32%1cc#X/	.	.
.	.	.	32%1dd#X/	.	.
.	.	.	32%1cc#/	.	.
.	.	.	32%1a#X/	.	.
.	.	.	32%1b#/	.	.
.	.	.	32%1g#X/	.	.
.	.	.	32%1a#/J	.	.
*	*	*	*rscale:auto	*	*
.	.	.	4f#;/	-nek	.
=23	=23	=23	=23	=23	=23
*	*	*^	*	*	*
((1DD 1AA 1C	8r	.	fz	2r	.	.
.	(16dd\LL	.	f	.	.	.
.	16ee\JJ	.	.	.	.	.
.	16ff#\LL	<	.	.	.	.
.	16gg\	.	.	.	.	.
.	16aa\	.	.	.	.	.
.	16bb-X\JJ	.	.	.	.	.
.	16bbn\LL	.	.	4r	.	.
.	16ccc\	.	.	.	.	.
.	16ccc#X\	.	.	.	.	.
.	16ddd\JJ	.	.	.	.	.
.	16ddd#X\LL	.	.	4ddn\	Już	.
.	16eee\	.	.	.	.	.
.	16fff#\	.	.	.	.	.
.	16fff#X\JJ)	[[	.	.	.	.
=24	=24	=24	=24	=24	=24	=24
4GG/)) 4BB	8ggg\	.	sf	4.gg\	za-	.
.	4B/ 4d 4g	.	f	.	.	.
4BB/	.	>	.	.	.	.
.	4B/ 4d 4g	.	.	8g/	-błysł	.
4D\	.	.	.	4f#/	pro-	.
.	4B/ 4d 4g	.	.	.	.	.
4G\	.	.	.	4g/	-mień	.
.	8B/ 8d 8g	]]	.	.	.	.
*	*	*v	*v	*	*	*
=25	=25	=25	=25	=25	=25
4CC/	8c/ 8e 8a	p	4b\	słoń-	.
.	4c/ 4e 4a	.	.	.	.
4EE/	.	.	8a/	-ca	.
.	4c/ 4e 4a	.	8r	.	.
4AA/	.	.	4.ff#\	na-	.
.	4c/ 4e 4a	.	.	.	.
4C/	.	.	.	.	.
.	8c/ 8e 8a	.	8ee\	-stał	.
!!LO:LB:g=original	!	!	!	!	!
=26	=26	=26	=26	=26	=26
4DD/	8c/ 8f# 8a	.	(8dd\L	wio-	.
.	4c/ 4f# 4a	.	8cc#X\J)	.	.
4FF#/	.	.	(8ccn\L	-sny	.
.	4c/ 4f# 4a	.	8b\J)	.	.
4AA/	.	.	(8dd\L	szczęś-	.
.	4c/ 4f# 4a	.	8cc\J)	.	.
4DD/	.	.	(8e/L	-cia	.
.	8c/ 8f# 8a	.	8f#/J)	.	.
=27	=27	=27	=27	=27	=27
4GG/	8B/ 8d 8g	<	4g/	ra-	.
.	4B/ 4d 4g	.	.	.	.
4G\	.	.	8d/	-nek	.
.	4B/ 4d 4g	.	8r	.	.
4D\	.	.	4.dd\	Je-	.
.	4B/ 4d 4g	.	.	.	.
4BB/	.	.	.	.	.
.	8B/ 8d 8g	[[	8dd\	-stem	.
=28	=28	=28	=28	=28	=28
4GG/	8B/ 8d 8g	fp	4.gg\	bli-	.
.	4B/ 4d 4g	.	.	.	.
4BB/	.	.	.	.	.
.	4B/ 4d 4g	.	8g/	-zką	.
4D\	.	.	4f#/	cier-	.
.	4B/ 4d 4g	.	.	.	.
4G\	.	.	4g/	-pień	.
.	8B/ 8d 8g	.	.	.	.
=29	=29	=29	=29	=29	=29
4CC/	8c/ 8e 8a	<	4b\	koń-	.
.	4c/ 4e 4a	.	.	.	.
4EE/	.	.	8a/	-ca	.
.	4c/ 4e 4a	.	8r	.	.
!	!	!	!	!	!LO:DY:a
4AA/	.	.	4.aa\	ach!	f
.	4c/ 4e 4a	.	.	.	.
4C/	.	.	.	.	.
.	8c/ 8e 8a	[[	8gg\	już	.
=30	=30	=30	=30	=30	=30
!	!LO:TX:b:i:t=poco riten	!	!LO:TX:a:i:t=poco riten	!	!
4DD/ 4D	4c/ 4f# 4a	.	(8ff#\L	przy-	.
.	.	.	8ee\J)	.	.
4r	4r	.	(8dd\L	-był	.
.	.	.	8cc#X\J)	.	.
2r	2r	.	8ee\	mój	.
.	.	.	8dd\	ko-	.
.	.	.	(8ccn\L	-cha-	.
.	.	.	8a\J)	.	.
!!LO:LB:g=original	!	!	!	!	!
=31	=31	=31	=31	=31	=31
*^	*	*	*	*	*
!	!	!	!	!LO:TX:a:B:t=a tempo	!	!
8rc	1GG	8r	.	4g/	-nek	.
!	!	!LO:TX:a:t=Vle	!	!	!	!
!	!	!LO:TX:a:t=Vni	!	!	!	!
!	!	!LO:TX:a:B:t=a tempo.	!	!	!	!
*Xtremolo	*	*	*	*	*	*
8G/L	.	8gg'\L 8aa 8ccc#X	pp	.	.	.
8G/	.	8gg'\ 8bb 8ddd	.	4r	.	.
8G/J	.	8cc#X'\J 8gg 8aa	.	.	.	.
8G/L	.	8dd'\L 8gg 8bb	.	4r	.	.
8G/	.	8a#X'\ 8cc# 8gg	.	.	.	.
8G/	.	8b'\ 8dd 8gg	.	4dd\	ah!	.
8G/J	.	8g'\J 8a# 8cc#	.	.	.	.
=32	=32	=32	=32	=32	=32	=32
8rc	1GG	8g'\L 8b 8dd	.	2.gg\	za-	.
8G/L	.	8gg'\ 8aa 8ccc#X	.	.	.	.
8G/	.	8gg'\ 8bb 8ddd	.	.	.	.
8G/J	.	8cc#X'\J 8gg 8aa	.	.	.	.
8G/L	.	8dd'\L 8gg 8bb	.	.	.	.
8G/	.	8a#X'\ 8cc#X 8gg	.	.	.	.
8G/	.	8b'\ 8dd 8gg	.	4g/	-błysł	.
8G/J	.	8g'\J 8b 8dd	.	.	.	.
=33	=33	=33	=33	=33	=33	=33
8rc	1D	8f#/ 8a 8dd	.	4g/	pro-	.
!	!	!LO:TX:a:t=Ob	!	!	!	!
!LO:TX:a:t=Fag	!	!LO:TX:a:t=Flau	!	!	!	!
8d/L	.	8dd\L 8ff#	.	.	.	.
8d/	.	8ee\ 8gg	.	4f#/	-mień	.
8d/J	.	8ee#X\J 8gg#X	.	.	.	.
8d/L	.	8ff#\L 8aa	<	2r	.	.
8d/	.	8ggn\ 8bb	.	.	.	.
8d/	.	8aa\ 8ccc	.	.	.	.
8d/J	.	8gg#X\J 8bb	[[	.	.	.
*v	*v	*	*	*	*	*
=34	=34	=34	=34	=34	=34
8D\L 8d	8aa\L 8ccc	>	2.ddTT\	słoń-	.
8D\J 8A 8c	8ff#\ 8ddd	.	.	.	.
8D\L 8A 8c	8ff#\ 8eee	.	.	.	.
8D\J 8A 8c	8ff#\J 8ddd	.	.	.	.
8D\L 8A 8c	8ff#\L 8eee	.	.	.	.
8D\ 8A 8c	8ff#\ 8ddd	.	.	.	.
8D\ 8A 8c	8ff#\ 8eee	.	(8cc#X\L	.	.
8D\J 8A 8c	8ff#\J 8ddd	]]	8dd\J)	.	.
!!LO:LB:g=original	!	!	!	!	!
=35	=35	=35	=35	=35	=35
8G\L 8B	8gg\L 8bb	pp	4b\	-ca	.
!	!LO:TX:b:i:t=e delicatissimo	!	!	!	!
8G\J	(16aa#X\L 16ccc#X	.	.	.	.
.	16gg\JJ	.	.	.	.
8G\L	8bb'\L) 8ddd	.	4r	.	.
8G\J	(16gg\L 16aa#	.	.	.	.
.	16cc#X\JJ	.	.	.	.
8G\L	8gg'\L) 8bb	.	2r	.	.
8G\	(16cc#\L 16gg	.	.	.	.
.	16a#X\JJ	.	.	.	.
8G\	8b'\L) 8dd 8gg	.	.	.	.
8G\J	(16a#\L 16cc#X	.	.	.	.
.	16g\JJ	.	.	.	.
=36	=36	=36	=36	=36	=36
8GG\L	8b'\L) 8dd	.	2.gg\	Na-	.
8G\J	(16aa#X\L 16ccc#X	.	.	.	.
.	16gg\JJ	.	.	.	.
8G\L	8bb'\L) 8ddd	.	.	.	.
8G\J	(16gg\L 16aa#	.	.	.	.
.	16cc#X\JJ	.	.	.	.
8G\L	8gg'\L) 8bb	.	.	.	.
8G\	(16cc#\L 16gg	.	.	.	.
.	16a#X\JJ	.	.	.	.
8G\	8b'\L) 8dd 8gg	.	4g/	-stał	.
8G\J	16b\L 16dd	.	.	.	.
.	16g\JJ	.	.	.	.
=37	=37	=37	=37	=37	=37
*^	*	*	*	*	*
8rc	[1D	8f#/ 8a 8dd	.	4g/	szczęś-	.
8d/L	.	8dd\L 8ff#	.	.	.	.
8d/	.	8ee\ 8gg	.	4f#/	-cia	.
8d/J	.	8ee#X\J 8gg#X	.	.	.	.
8d/L	.	8ff#\L 8aa	<	2r	.	.
8d/	.	8gg#\ 8bb	.	.	.	.
8d/	.	8aa\ 8ccc	.	.	.	.
8d/J	.	8gg#X\J 8bb	[[	.	.	.
*v	*v	*	*	*	*	*
=38	=38	=38	=38	=38	=38
8D\L] 8d	8aa\L 8ccc	>	2.dd^T\	wio-	.
8D\ 8A 8c	8ff#\ 8ddd	.	.	.	.
8D\ 8A 8c	8ff#\ 8eee	.	.	.	.
8D\J 8A 8c	8ff#\J 8ddd	]]	.	.	.
8D\L 8A 8c	8ff#\L 8eee	.	.	.	.
8D\ 8A 8c	8ff#\ 8ddd	.	.	.	.
.	.	.	(8qcc#X/	.	.
8D\ 8A 8c	8ff#\ 8eee	.	4dd\)	-sny	.
8D\J 8A 8c	8ff#\J 8ddd	.	.	.	.
!!LO:PB:g=original	!	!	!	!	!
=39	=39	=39	=39	=39	=39
4G\ 4B	8gg\ 8bb	p	4b\	ra-	.
!	!LO:TX:a:t=Vle	!	!	!	!
!	!LO:TX:a:t=Vni	!	!	!	!
.	8d'\L 8g 8b	.	.	.	.
4r	8g'\ 8b 8dd	.	8g/	-nek	.
.	8b'\J 8dd 8gg	.	8r	.	.
4EE/ 4E	8r	.	2g#Xtt/	za-	.
.	8e'\L 8g#X 8b	.	.	.	.
4r	8g#'\ 8b 8ee	.	.	.	.
.	8b'\J 8ee 8gg#X	.	.	.	.
.	.	.	(16qqf#/LL	.	.
.	.	.	16qqg#/JJ)	.	.
=40	=40	=40	=40	=40	=40
4AA\ 4A	8r	.	4a/	.	.
.	8e'\L 8a 8cc	.	.	.	.
4r	8a'\ 8cc 8ee	.	4e/	-błysł	.
.	8cc'\J 8ee 8aa	.	.	.	.
4EE/ 4E	8r	.	4b\	pro-	.
.	8g#X'\L 8b 8ee	.	.	.	.
4r	8b'\ 8ee 8gg#X	.	4e/	-mień	.
.	8ee'\J 8gg# 8bb	.	.	.	.
=41	=41	=41	=41	=41	=41
4AA\ 4A	8r	.	4cc\	słoń-	.
.	8e'\L 8a 8cc	.	.	.	.
4r	8a'\ 8cc 8ee	.	8a/	-ca	.
.	8cc'\J 8ee 8aa	.	8r	.	.
4GG/ 4G	8r	.	2btt\	za-	.
.	8b'\L 8dd 8ggn	.	.	.	.
4r	8dd'\ 8gg 8bb	.	.	.	.
.	8gg'\J 8bb 8ddd	.	.	.	.
.	.	.	(16qqa/LL	.	.
.	.	.	16qqb/JJ)	.	.
=42	=42	=42	=42	=42	=42
4C\ 4c	8r	.	4cc\	.	.
.	8cc'\L 8ee 8gg	.	.	.	.
4r	8ee'\ 8gg 8ccc	.	4g/	-błysł	.
.	8gg'\J 8ccc 8eee	.	.	.	.
4GG/ 4G	8r	.	4dd\	pro-	.
.	8b'\L 8dd 8gg	.	.	.	.
4r	8ee'\ 8gg 8bb	.	4g/	-mień	.
.	8gg'\J 8bb 8ddd	.	.	.	.
!!LO:LB:g=original	!	!	!	!	!
=43	=43	=43	=43	=43	=43
8C\L 8c	8gg\L 8eee	f	4ee\	słoń-	.
8C\J 8c	8g\J 8cc 8ee	.	.	.	.
4C\ 4c	4g\ 4cc 4ee	.	4cc\	-ca	.
*clefG2	*	*	*	*	*
!	!LO:TX:a:t=Flau	!	!	!	!
8c/L 8e 8g	(8.ggg\L	p	2r	.	.
8c/J 8e 8g	.	.	.	.	.
.	16eee\Jk	.	.	.	.
4c/ 4e 4g	16ccc\LL	.	.	.	.
.	16gg\	.	.	.	.
.	16ee\	.	.	.	.
.	16cc\JJ	.	.	.	.
=44	=44	=44	=44	=44	=44
!	!LO:TX:b:i:t=poco riten	!	!	!	!
!	!	!	!LO:TX:t=poco riten-:dur=2hq:ext=cd:problem:text with extention lines	!	!
8c/L 8e-X 8g	4g/)	.	(1ee-X	smu-	.
8c/J 8e- 8g	.	.	.	.	.
4c/ 4e- 4g	4r	.	.	.	.
*clefF4	*	*	*	*	*
!	!LO:TX:a:t=Clar	!	!	!	!
8C\L 8E-X 8G	(8.gg^<\L	.	.	.	.
8C\J 8E- 8G	.	.	.	.	.
.	16ee-X\Jk	.	.	.	.
4C\ 4E- 4G	16cc/LL	.	.	.	.
.	16g/	.	.	.	.
.	16e-X/	.	.	.	.
.	16c/JJ	.	.	.	.
=45	=45	=45	=45	=45	=45
8C\L 8En	4G/)	.	4een\)	-tek	.
8C\J 8E	.	.	.	.	.
4C\ 4E	4r	.	4r	.	.
*clefG2	*	*	*	*	*
8c/L 8e 8g	(8.ggg^<\L	.	2r	.	.
8c/J 8e 8g	.	.	.	.	.
.	16eeen\Jk	.	.	.	.
4c/ 4e 4g	16ccc\LL	.	.	.	.
.	16gg\	.	.	.	.
.	16een\	.	.	.	.
.	16cc\JJ	.	.	.	.
=46	=46	=46	=46	=46	=46
8c/L 8e-X 8g	4g/)	.	(1ee-X	zni-	.
8c/J 8e- 8g	.	.	.	.	.
4c/ 4e- 4g	4r	.	.	.	.
*clefF4	*	*	*	*	*
8C\L 8E-X 8G	(8.gg^<\L	.	.	.	.
8C\J 8E- 8G	.	.	.	.	.
.	16ee-X\Jk	.	.	.	.
4C\ 4E- 4G	16cc/LL	.	.	.	.
.	16g/	.	.	.	.
.	16e-X/	.	.	.	.
.	16c/JJ	.	.	.	.
!!LO:LB:g=original	!	!	!	!	!
=47	=47	=47	=47	=47	=47
*tremolo	*	*	*	*	*
!	!LO:TX:b:B:t=a tempo	!	!	!	!
8C\L 8E	4G/)	.	4een\)	-ka	.
8C\ 8E	.	.	.	.	.
!	!LO:TX:b:t=cres-cen-:dur=3h:ext=cd:problem:text with extention lines 	!	!LO:TX:a:B:t=a tempo	!	!
8C\ 8E	4r	<	4r	.	.
8C\J 8E	.	.	.	.	.
8C\L 8E 8G	2een\ 2eeen	.	4ee\	bo	.
8C\ 8E 8G	.	.	.	.	.
8C\ 8E 8G	.	.	4ee\	już	.
8C\J 8E 8G	.	.	.	.	.
=48	=48	=48	=48	=48	=48
8C#X\L 8E 8G 8B-X	2gg\ 2ggg	.	[1gg	przy-	.
8C#\ 8E 8G 8B-	.	.	.	.	.
8C#\ 8E 8G 8B-	.	.	.	.	.
8C#\J 8E 8G 8B-	.	.	.	.	.
8E\L 8G 8B-	2gg\ 2ggg	[[	.	.	.
8E\ 8G 8B-	.	.	.	.	.
8E\ 8G 8B-	.	.	.	.	.
8E\J 8G 8B-	.	.	.	.	.
=49	=49	=49	=49	=49	=49
8D\L 8G 8Bn	2gg\ 2ggg	f	2gg\]	.	.
8D\ 8G 8B	.	.	.	.	.
8D\ 8G 8B	.	.	.	.	.
8D\J 8G 8B	.	.	.	.	.
8D\L 8G 8B	2dd\ 2ddd	.	4dd\	-był	.
8D\ 8G 8B	.	.	.	.	.
8D\ 8G 8B	.	.	4dd\	ko-	.
8D\J 8G 8B	.	.	.	.	.
=50	=50	=50	=50	=50	=50
8D\L 8F# 8c	[2ee\ [2eee	.	2ee\	-cha-	.
8D\ 8F# 8c	.	.	.	.	.
8D\ 8F# 8c	.	.	.	.	.
8D\J 8F# 8c	.	.	.	.	.
8D\L 8F# 8c	8ee\L] 8eee]	.	8ee\L	.	.
8D\ 8F# 8c	8dd\ 8ddd	.	8dd\	.	.
8D\ 8F# 8c	8cc\ 8ccc	.	8cc\	.	.
8D\J 8F# 8c	8a\J 8aa	.	8a\J	.	.
=51	=51	=51	=51	=51	=51
8G\ 8B	8g\ 8gg	.	4g/	-nek	.
8r	8r	.	.	.	.
*clefG2	*	*	*	*	*
2.b\ 2.dd	([4gg^<\	f	4r	.	.
.	8gg\L]	.	2r	.	.
.	8ff#\	.	.	.	.
.	8aa\	.	.	.	.
.	[8gg\J)	.	.	.	.
=52	=52	=52	=52	=52	=52
!	!	!	!LO:TX:b:i:t=poco riten	!	!
(4a/ 4cc	8gg\]	p	1r	.	.
!	!LO:TX:b:i:t=poco riten	!	!	!	!
.	4ff#^<\	.	.	.	.
4g/ 4b	.	.	.	.	.
.	4ee^<\	.	.	.	.
4f#/ 4a	.	.	.	.	.
.	4dd^<\	.	.	.	.
4e/) 4g	.	.	.	.	.
.	[8cc^<\	.	.	.	.
=53	=53	=53	=53	=53	=53
((1d#X; 1f#	2cc\]	.	2cc^\	ah!	.
.	2b;\	.	2b;\	tak	.
!!LO:LB:g=original	!	!	!	!	!
=54	=54	=54	=54	=54	=54
!	!LO:TX:b:B:t=a tempo	!	!LO:TX:a:B:t=a tempo	!	!
(4e/)) 4g	(2bb\	p	4.b\	przy-	.
4d/ 4e 4g#X	.	.	.	.	.
.	.	.	8b\	-był	.
4c/) 4e 4a	8ddd\L	.	(8dd\L	mój	.
.	8ccc\	.	8cc\J)	.	.
*clefF4	*	*	*	*	*
4C\ 4E 4A	8ee\	.	(8e/L	ko-	.
.	8aa\J)	.	8a/J)	.	.
=55	=55	=55	=55	=55	=55
*^	*	*	*	*	*
2G/ 2B	1D	2gg$\	.	(2g$/	-cha-	.
2F#/ 2c	.	4.bb\	.	4.b\	.	.
.	.	8aa\	.	8a/)	.	.
=56	=56	=56	=56	=56	=56	=56
8B/	8G\	8gg\	.	4g/	-nek	.
8rc	8rEEyy	8r	.	.	.	.
*clefG2	*	*	*	*	*	*
(2.dd/	2.b\	([4gg^<\	f	4r	.	.
.	.	8gg\L]	.	2r	.	.
.	.	8ff#\	.	.	.	.
.	.	8aa\	.	.	.	.
.	.	[8gg\J	.	.	.	.
*v	*v	*	*	*	*	*
=57	=57	=57	=57	=57	=57
!	!	!	!LO:TX:t=poco riten-to:dur=e:ext=cd:problem:text with extention lines	!	!
4a/ 4cc	8gg\])	p	2r	.	.
!	!LO:TX:b:t=poco riten-to:dur=3qe2h:ext=cd:problem:text with extention lines 	!	!	!	!
.	4ff#^<\	.	.	.	.
4g/ 4b	.	.	.	.	.
.	4ee^<\	.	.	.	.
4f#/ 4a	.	.	4r	.	.
.	4dd^<\	.	.	.	.
4e/) 4g	.	.	8r	.	.
.	[8cc^<\	.	8cc\	o!	.
=58	=58	=58	=58	=58	=58
*	*	*	*	*	*^
!	!	!	!	!	!LO:HP:a	!LO:HP:a
((1e-X 1f#X	1cc]	.	1cc	Bo-	< [	> ]
*	*	*	*	*	*v	*v
=59	=59	=59	=59	=59	=59
2.e;/)) 2.g	2.b-X;\	.	2.b-X;\	-że	f
!	!LO:TX:b:B:t=a tempo	!	!LO:TX:a:B:t=a tempo	!	!
4r	4r	.	4b-\	Już	.
*clefF4	*	*	*	*	*
=60	=60	=60	=60	=60	=60
!	!LO:TX:a:i:t=Animato	!	!	!	!
4DD/ 4D	8B-X/ 8fn 8a-X	f	4.ffn\	za-	.
.	4B-/ 4f 4a-	p	.	.	.
4FFn/ 4Fn	.	.	.	.	.
.	4B-/ 4f 4a-	.	8a-X/	-błysł	.
4DD/ 4D	.	.	4.cc\	pro-	.
.	4B-/ 4f 4a-	.	.	.	.
4BBB-X/ 4BB-X	.	.	.	.	.
.	(>8A-X/ 8f 8a-	.	8b-X\	-mień	.
=61	=61	=61	=61	=61	=61
4EE-X/ 4E-X	8B-X/) 8e-X 8g	.	2b-X\	słoń-	.
.	4B-/ 4e- 4g	.	.	.	.
4GG/	.	.	.	.	.
.	4B-/ 4e- 4g	.	.	.	.
4BB-X/	.	.	4g/	-ca	.
.	4B-/ 4e- 4g	.	.	.	.
4EE-/	.	.	4r	.	.
.	8B-/ 8e- 8g	.	.	.	.
=62	=62	=62	=62	=62	=62
4DD/ 4D	8B-X/ 8fn 8a-X	f	4.ffn\	Na-	.
.	4B-/ 4f 4a-	p	.	.	.
4FFn/ 4Fn	.	.	.	.	.
.	4B-/ 4f 4a-	.	8a-X/	-stał	.
4DD/ 4D	.	.	4.cc\	wio-	.
.	4B-/ 4f 4a-	.	.	.	.
4BBB-X/ 4BB-X	.	.	.	.	.
.	8B-/ 8f 8a-	.	8b\	-sny	.
=63	=63	=63	=63	=63	=63
4EE-X/ 4E-X	8B-X/ 8e-X 8g	f	2b-X\	ra-	.
.	4B-/ 4e- 4g	.	.	.	.
4E-\	.	.	.	.	.
.	8B-/ 8e- 8g	<	.	.	.
4BB-X/	8e-/L 8g 8b-X	.	4g/	-nek	.
.	8e-/J 8g 8b-	.	.	.	.
4GG/	8g\L 8b- 8ee-X	.	4r	.	.
.	8g\J 8b- 8ee-	[[	.	.	.
!!LO:PB:g=original	!	!	!	!	!
=64	=64	=64	=64	=64	=64
!	!	!	!LO:TX:a:i:t=con molto espressione	!	!LO:DY:a
4EE-X/ 4E-X	4b-X\ 4ee-X 4gg	sf	[2gg\	Ah!	f
4r	4r	.	.	.	.
2r	2r	.	(8gg\L]	.	.
.	.	.	8dd\J)	.	.
.	.	.	(8ee-X\L	już	.
.	.	.	8bn\J)	.	.
=65	=65	=65	=65	=65	=65
4AA-X\ 4A-X	4a-X\ 4cc 4ee-X 4aa-X	.	(8dd\L	przy-	.
.	.	.	8cc\J)	.	.
4r	4r	.	(8g/L	-był	.
.	.	.	8b-X/J)	.	.
2r	2r	.	(8a-X/L	mój-	.
.	.	.	8en/J)	.	.
.	.	.	(8fn/L	-ko-	.
.	.	.	8cc/J)	.	.
=66	=66	=66	=66	=66	=66
!	!	!	!	!	!LO:HP:a
4BB-X\ 4B-X	4b-X\ 4ee-X 4gg	sf	2b-X\	-cha-	<
4r	4r	.	.	.	.
2r	2r	.	[2bb-X\	.	[
=67	=67	=67	=67	=67	=67
*	*tremolo	*	*	*	*
8BB-X\L 8B-X	16aa-X\LL 16ddd	f	2bb-\]	.	.
.	16ffn\	.	.	.	.
8BB-\ 8B-	16aa-\ 16ddd	.	.	.	.
.	16ff\	.	.	.	.
8BB-\ 8B-	16aa-\ 16ddd	.	.	.	.
.	16ff\	.	.	.	.
8BB-\J 8B-	16aa-\ 16ddd	.	.	.	.
.	16ffn\JJ	.	.	.	.
8BB-\L 8B-	16aa-\LL 16ddd	.	2dd\	.	.
.	16ff\	.	.	.	.
8BB-\ 8B-	16aa-\ 16ddd	.	.	.	.
.	16ff\	.	.	.	.
8BB-\ 8B-	16aa-\ 16ddd	.	.	.	.
.	16ff\	.	.	.	.
8BB-\J 8B-	16aa-\ 16ddd	.	.	.	.
.	16ff\JJ	.	.	.	.
=68	=68	=68	=68	=68	=68
16E-X\LL 16G	4gg\ 4eee-X	.	2ee-X\	-nek	.
16B-X\	.	.	.	.	.
16E-\ 16G	.	.	.	.	.
16B-\	.	.	.	.	.
16E-\ 16G	4r	.	.	.	.
16B-\	.	.	.	.	.
16E-\ 16G	.	.	.	.	.
16B-X\JJ	.	.	.	.	.
16E-\LL 16G	2r	.	2r	.	.
16B-\	.	.	.	.	.
16E-\ 16G	.	.	.	.	.
16B-\	.	.	.	.	.
16E-\ 16G	.	.	.	.	.
16B-\	.	.	.	.	.
16E-\ 16G	.	.	.	.	.
16B-\JJ	.	.	.	.	.
=69	=69	=69	=69	=69	=69
!	!LO:TX:b:t=cres-:dur=hq:ext=cd:problem:text with extention lines 	!	!	!	!LO:DY:a
16E-X\LL 16G	(2.gg\ 2.ggg	<	2.gg\	ah!	f
16B-X\	.	.	.	.	.
16E-\ 16G	.	.	.	.	.
16B-\	.	.	.	.	.
16E-\ 16G	.	.	.	.	.
16B-\	.	.	.	.	.
16E-\ 16G	.	.	.	.	.
16B-X\JJ	.	.	.	.	.
16E-\LL 16G	.	.	.	.	.
16B-\	.	.	.	.	.
16E-\ 16G	.	.	.	.	.
16B-\	.	.	.	.	.
16E-\ 16G	4cc#X\) 4ccc#X	[	4cc#X\	już	.
16B-\	.	.	.	.	.
16E-\ 16G	.	.	.	.	.
16B-\JJ	.	.	.	.	.
!!LO:LB:g=original	!	!	!	!	!
=70	=70	=70	=70	=70	=70
16D\LL 16G	(4een\ 4eeen	ff	4een\	przy-	.
16Bn\	.	.	.	.	.
16D\ 16G	.	.	.	.	.
16B\	.	.	.	.	.
16D\ 16G	4dd\ 4ddd	.	4dd\	-był	.
16B\	.	.	.	.	.
16D\ 16G	.	.	.	.	.
16Bn\JJ	.	.	.	.	.
16D\LL 16G	4b\ 4bb	.	4b\	mój	.
16B\	.	.	.	.	.
16D\ 16G	.	.	.	.	.
16B\	.	.	.	.	.
16D\ 16G	4g\) 4gg	.	4g/	ko-	.
16B\	.	.	.	.	.
16D\ 16G	.	.	.	.	.
16B\JJ	.	.	.	.	.
=71	=71	=71	=71	=71	=71
16D\LL 16F#	(2.b\ 2.bb	.	2.bn\	-cha-	.
16c\	.	.	.	.	.
16D\ 16F#	.	.	.	.	.
16c\	.	.	.	.	.
16D\ 16F#	.	.	.	.	.
16c\	.	.	.	.	.
16D\ 16F#	.	.	.	.	.
16c\JJ	.	.	.	.	.
16D\LL 16F#	.	.	.	.	.
16c\	.	.	.	.	.
16D\ 16F#	.	.	.	.	.
16c\	.	.	.	.	.
16D\ 16F#	4a\) 4aa	.	4a/	.	.
16c\	.	.	.	.	.
16D\ 16F#	.	.	.	.	.
16c\JJ	.	.	.	.	.
=72	=72	=72	=72	=72	=72
*	*^	*	*	*	*
!	!LO:TX:b:t=Clar	!	!	!	!	!
!LO:TX:a:t=Fag	!LO:TX:a:t=Ob	!	!	!	!	!
(4G\ 4B	(2gg/	2b\	fp	4g/	-nek	.
4G\	.	.	.	4r	.	.
4A\	4ff#/	4cc\	.	2r	.	.
4B\)	4ffn/)	4dd\	.	.	.	.
=73	=73	=73	=73	=73	=73	=73
4c\	(4ee/	2cc\	>	4ee\	ah!	.
!	!	!	!	!	!	!LO:HP:a
4F#\	4ee-X/	.	.	4ee-X\	już	>
4G\	4dd/	4b\	.	4dd\	za-	.
4D#X\	4cc/)	4a\	]	4cc\	-błysł	]]
*	*v	*v	*	*	*	*
=74	=74	=74	=74	=74	=74
!	!	!	!	!	!LO:DY:a
8E\	8g/L 8b	p	4b\	pro-	p
8r	8e/J 8g 8b	.	.	.	.
8BBB^>/ 8BB	8r	.	4dd\	-mień	.
8r	8fny^/ 8g#X 8dd	.	.	.	.
8CC/ 8C	8r	.	4cc\	słoń-	.
8r	8e/ 8a 8cc	.	.	.	.
8CC/ 8C	8r	.	4a/	-ca	.
8r	8c/ 8e 8a	.	.	.	.
=75	=75	=75	=75	=75	=75
8DD/ 8D	8r	.	4a/	pro-	.
8r	8B/ 8d 8a	.	.	.	.
8DD/ 8D	8r	.	4g/	-mień	.
8r	8B/ 8d 8g	.	.	.	.
8DD/ 8D	8r	.	(4g/	słoń-	.
8r	8A/ 8c 8g	.	.	.	.
8DD/ 8D	8r	.	4f#/)	.	.
8r	8A/ 8c 8f#	.	.	.	.
!!LO:LB:g=original	!	!	!	!	!
=76	=76	=76	=76	=76	=76
*	*^	*	*	*	*
8GG/ 8G	8B/ 8d 8g	4rcyy	.	4g/	-ca	.
8r	8ra	.	.	.	.	.
4G\	(4gg/	4b\	<	4r	.	.
4A\	4ff#/	4cc\	.	2r	.	.
4B\	4ffn/	4dd\	[[	.	.	.
=77	=77	=77	=77	=77	=77	=77
4c\	4ee/	2cc\	>	4ee\	Na-	.
!	!	!	!	!	!	!LO:HP:a
4F#\	4ee-X/	.	.	4ee-X\	-stał	>
4G\	4dd/	4b\	.	4dd\	wio-	.
4D#X\	4cc/)	4a\	]	4cc\	-sny	]
*	*v	*v	*	*	*	*
=78	=78	=78	=78	=78	=78
8E\	8g/L 8b	p	4b\	szczęś-	.
8r	8e/J 8g 8b	.	.	.	.
8BBB^>/ 8BB	8r	.	4dd\	-cia	.
8r	8fn^/ 8g#X 8dd	.	.	.	.
8CC/ 8C	8r	.	4cc\	ra-	.
8r	8e/ 8a 8cc	.	.	.	.
8CC/ 8C	8r	.	4a/	-nek	.
8r	8c/ 8e 8a	.	.	.	.
=79	=79	=79	=79	=79	=79
8DD/ 8D	8r	.	4a/	szczęś-	.
8r	8B/ 8d 8a	.	.	.	.
8DD/ 8D	8r	.	4g/	-cia	.
8r	8B/ 8d 8g	.	.	.	.
8DD/ 8D	8r	.	(4g/	ra-	.
8r	8A/ 8c 8g	.	.	.	.
8DD/ 8D	8r	.	4f#/)	.	.
8r	8A/ 8c 8f#	.	.	.	.
=80	=80	=80	=80	=80	=80
8GG/ 8G	8r	.	4g/	-nek	.
8r	8B/ 8d 8g	.	.	.	.
8GG/ 8G	8r	.	4r	.	.
8r	8B/ 8d 8g	.	.	.	.
!	!	!	!	!	!LO:DY:a
!	!	!	!	!	!LO:HP:a
8BBB/ 8BB	8r	.	4ee\	przy-	f >
8r	8fn/ 8g#X 8dd	f >	.	.	.
8BBB/ 8BB	8r	.	4dd\	-był	]]
8r	8f/ 8g# 8dd	]]	.	.	.
!!LO:LB:g=original	!	!	!	!	!
=81	=81	=81	=81	=81	=81
8CC/ 8C	8r	p	4dd\	już	.
8r	8e/ 8a 8dd	.	.	.	.
8CC/ 8C	8r	.	4cc\	ko-	.
8r	8e/ 8a 8cc	.	.	.	.
8DD/ 8D	8r	.	(4b\	-cha-	.
8r	8d/ 8g 8b	.	.	.	.
8DD/ 8D	8r	.	4a/)	.	.
8r	8c/ 8f# 8a	.	.	.	.
=82	=82	=82	=82	=82	=82
8GG/ 8G	8r	.	4g/	-nek	.
8r	8B/ 8d 8g	.	.	.	.
8GG/ 8G	8r	.	4r	.	.
8r	8B/ 8d 8g	.	.	.	.
!	!	!	!	!	!LO:DY:a
!	!	!	!	!	!LO:HP:a
8BBB/ 8BB	8r	.	4ee\	lu-	f >
8r	8fn/ 8g#X 8dd	f >	.	.	.
8BBB/ 8BB	8r	.	4dd\	-by	.
8r	8f/ 8g# 8dd	]]	.	.	]]
=83	=83	=83	=83	=83	=83
8CC/ 8C	8r	.	4dd\	dro-	.
8r	8e/ 8a 8dd	.	.	.	.
8CC/ 8C	8r	.	4cc\	-gi	.
8r	8e/ 8a 8cc	.	.	.	.
8DD/ 8D	8r	.	4b\	Żu-	.
8r	8d/ 8g 8b	.	.	.	.
8DD/ 8D	8r	.	4a/	-an	.
8r	8c/ 8f# 8a	.	.	.	.
=84	=84	=84	=84	=84	=84
*Xtremolo	*Xtremolo	*	*	*	*
8GG/L 8G	16d/LL 16g	<	4g/	mój	.
.	16B/	.	.	.	.
8GG/ 8G	16d/ 16g	.	.	.	.
.	16B/JJ	.	.	.	.
8GG/ 8G	16g/LL 16b	.	4r	.	.
.	16d/	.	.	.	.
8GG/J 8G	16g/ 16b	.	.	.	.
.	16d/JJ	[	.	.	.
*tremolo	*tremolo	*	*	*	*
!	!LO:TX:b:i:t=simile	!	!	!	!
8GG/L 8G	16g\LL 16b 16dd	.	2gg\	ah!	.
.	16g\ 16b 16dd	.	.	.	.
8GG/ 8G	16g\ 16b 16dd	.	.	.	.
.	16g\JJ 16b 16dd	.	.	.	.
8GG/ 8G	16b\LL 16dd 16gg	.	.	.	.
.	16b\ 16dd 16gg	.	.	.	.
8GG/J 8G	16b\ 16dd 16gg	.	.	.	.
.	16b\JJ 16dd 16gg	.	.	.	.
=85	=85	=85	=85	=85	=85
8EE-X/L 8E-X	16gg\LL 16bb-X	f	2bb-X\	Bo-	.
.	16cc#X\	.	.	.	.
8EE-/ 8E-	16gg\ 16bb-	.	.	.	.
.	16cc#\	.	.	.	.
8EE-/ 8E-	16gg\ 16bb-	.	.	.	.
.	16cc#\	.	.	.	.
8EE-/J 8E-	16gg\ 16bb-	.	.	.	.
.	16cc#X\JJ	.	.	.	.
8EE-/L 8E-	16gg\LL 16bb-	.	2cc#X\	-że	.
.	16cc#\	.	.	.	.
8EE-/ 8E-	16gg\ 16bb-	.	.	.	.
.	16cc#\	.	.	.	.
8EE-/ 8E-	16gg\ 16bb-	.	.	.	.
.	16cc#\	.	.	.	.
8EE-/J 8E-	16gg\ 16bb-	.	.	.	.
.	16cc#\JJ	.	.	.	.
!!LO:LB:g=original	!	!	!	!	!
=86	=86	=86	=86	=86	=86
!	!	!	!	!	!LO:HP:a
8DD/L 8D	16gg\LL 16bbn	<	1dd	wspie-	<[
.	16dd\	.	.	.	.
8DD/ 8D	16gg\ 16bb	.	.	.	.
.	16dd\	.	.	.	.
8DD/ 8D	16gg\ 16bb	.	.	.	.
.	16dd\	.	.	.	.
8DD/J 8D	16gg\ 16bb	.	.	.	.
.	16dd\JJ	.	.	.	.
8DD/L 8D	16bb\LL 16ddd	.	.	.	.
.	16gg\	.	.	.	.
8DD/ 8D	16bb\ 16ddd	.	.	.	.
.	16gg\	.	.	.	.
8DD/ 8D	16bb\ 16ddd	.	.	.	.
.	16gg\	.	.	.	.
8DD/J 8D	16bb\ 16ddd	.	.	.	.
.	16gg\JJ	[	.	.	.
=87	=87	=87	=87	=87	=87
8DD/L 8D	16ccc\LL 16fff#	ff	2.bb\	.	.
.	16aa\	.	.	.	.
8DD/ 8D	16ccc\ 16fff#	.	.	.	.
.	16aa\	.	.	.	.
8DD/ 8D	16ccc\ 16fff#	.	.	.	.
.	16aa\	.	.	.	.
8DD/J 8D	16ccc\ 16fff#	.	.	.	.
.	16aa\JJ	.	.	.	.
8DD/L 8D	16ccc\LL 16fff#	.	.	.	.
.	16aa\	.	.	.	.
8DD/ 8D	16ccc\ 16fff#	.	.	.	.
.	16aa\	.	.	.	.
8DD/ 8D	16ccc\ 16fff#	.	4aa\	-raj	.
.	16aa\	.	.	.	.
8DD/J 8D	16ccc\ 16fff#	.	.	.	.
.	16aa\JJ	.	.	.	.
=88	=88	=88	=88	=88	=88
*	*8va	*	*	*	*
4GG/ 4G	8.gg\L 8.ggg	ff	4gg\	nas.	.
.	16ddd\Jk 16ggg 16bbb	.	.	.	.
4GG/ 4BB 4D 4G	8.ddd\L 8.ggg 8.bbb	.	4r	.	.
.	16bb\Jk 16ddd 16ggg	.	.	.	.
4GG/ 4BB 4D 4G	8.bb\L 8.ddd 8.ggg	.	2r	.	.
.	16gg\Jk 16bb 16ddd	.	.	.	.
4GG/ 4BB 4D 4G	8.gg/L 8.bb 8.ddd	.	.	.	.
.	16dd/Jk 16gg 16bb	.	.	.	.
=89	=89	=89	=89	=89	=89
4GG/ 4BB 4D 4G	8.dd\L 8.gg 8.bb	.	1r	.	.
*	*X8va	*	*	*	*
.	16b\Jk 16dd 16gg	.	.	.	.
4GGG/ 4GG	8.b\L 8.dd 8.gg	.	.	.	.
.	16g\Jk 16b 16dd	.	.	.	.
4GGG/ 4GG	8.g/L 8.b 8.dd	.	.	.	.
.	16d/Jk 16g 16b	.	.	.	.
4GGG/ 4GG	8.d/L 8.g 8.b	.	.	.	.
.	16B/Jk 16d 16g	.	.	.	.
=90	=90	=90	=90	=90	=90
4GGG/ 4GG	4B/ 4d 4g	.	1r	.	.
8.r	8.r	.	.	.	.
16GG/ 16G	16b\ 16dd 16gg	.	.	.	.
4GG/ 4G	4b\ 4dd 4gg	.	.	.	.
8.r	8.r	.	.	.	.
16GGG/ 16GG	16B/ 16d 16g	.	.	.	.
=91	=91	=91	=91	=91	=91
2GGG/ 2GG	2B/ 2d 2g	.	1r;	.	.
2r;	2r;	.	.	.	.
==	==	==	==	==	==
*-	*-	*-	*-	*-	*-
!!!system-decoration: s1{(s2,s3)}
!!!RDF**kern: > = above
!!!RDF**kern: < = below
!!!ENC: Solarz Mateusz
!!!END: 2022-09-15
!!!ENC: Natalia Wrzos
!!!END: 2022-10-30
!!!YEC: Copyright 2022 Narodowy Instytut Fryderyka Chopina (https://polishscores.org)
!!!YEM: License CC-BY-4.0 (https://creativecommons.org/licenses/by/4.0)
